illustrations/assets/Not found/il_axis_not_found_light.svg

<svg xmlns="http://www.w3.org/2000/svg" width="231" height="160" fill="none" viewBox="0 0 231 160">
  <path fill="#E5DACB" d="M156.04 36.4543c0 14.0061-11.139 25.588-24.995 26.3961h-1.63c-4.618 0-9.237-1.3468-13.04-3.5015-8.15-4.579-13.584-13.1981-13.584-23.164 0-6.7337 2.445-12.9287 6.792-17.5076 4.89-5.387 11.954-8.8885 19.832-8.8885 10.324 0 19.29 5.9257 23.636 14.5448 1.902 3.7709 2.989 7.8111 2.989 12.1207Z"/>
  <path fill="#272219" d="M155.806 36.4608c0 14.0061-11.139 25.5881-24.994 26.3961-5.162-.808-10.052-2.1548-14.671-3.2321-8.15-4.579-13.584-13.1981-13.584-23.164 0-6.7337 2.445-12.9287 6.792-17.5076 8.965-.2693 19.289.5387 29.885 2.4241 4.89.8081 9.508 1.8855 13.855 2.9629 1.63 3.7708 2.717 7.8111 2.717 12.1206Z" opacity=".1"/>
  <path fill="url(#paint0_linear_3831_4629)" d="M188.291 54.283c2.051-11.4232-23.231-25.4372-56.467-31.3012-33.2365-5.864-61.8422-1.3574-63.8926 10.0658-2.0504 11.4232 23.2308 25.4372 56.4676 31.3012 33.236 5.864 61.842 1.3574 63.892-10.0658Z"/>
  <path fill="#fff" d="M123.35 29.5036c.151-1.928-2.88-3.734-6.769-4.0338-3.889-.2999-7.165 1.0201-7.316 2.9481-.151 1.9281 2.879 3.7341 6.769 4.0339 3.889.2998 7.165-1.0201 7.316-2.9482ZM89.165 34.4597c3.7397-1.1008 6.3212-3.4959 5.7661-5.3497-.5552-1.8537-4.0367-2.4642-7.7764-1.3634-3.7396 1.1007-6.3211 3.4958-5.766 5.3496.5551 1.8538 4.0367 2.4642 7.7763 1.3635ZM150.828 36.5945c.342-1.9039-2.495-3.9966-6.335-4.6742-3.841-.6776-7.231.3165-7.573 2.2203-.342 1.9039 2.495 3.9966 6.335 4.6742 3.841.6776 7.231-.3164 7.573-2.2203ZM171.458 50.6785c.894-1.7188-1.192-4.549-4.659-6.3216-3.467-1.7726-7.003-1.8161-7.897-.0973-.894 1.7187 1.192 4.549 4.66 6.3216 3.467 1.7726 7.003 1.8161 7.896.0973Z"/>
  <path fill="url(#paint1_linear_3831_4629)" d="m124.722 46.0989-25.5381-.2693-36.369 67.6454L164.894 124.21l-11.375-68.9532-28.797-9.1579Z"/>
  <path fill="url(#paint2_linear_3831_4629)" d="M178.242 142.211H47.5646c3.5318-3.165 8.6937-6.33 14.6706-8.704 3.2601-1.187 7.0636-2.77 10.8671-3.561 11.4104-3.165 25.266-5.144 39.9367-5.144 17.659 0 33.96 2.77 46.457 7.122 4.347 1.583 8.15 3.165 11.41 5.144 2.989 1.582 5.434 3.165 7.336 5.143Z" opacity=".5"/>
  <path fill="#B9B2A7" d="M74.9171 131.864c.1711 1.607-2.6293 3.53-5.8711 3.875-3.2418.346-6.086-.706-6.5273-2.284 3.1562-1.149 6.8242-2.623 10.5492-3.561 1.1377.42 1.7636 1.166 1.8492 1.97ZM97.8227 130.732c4.3513 0 7.8783-.844 7.8783-1.886 0-1.041-3.527-1.885-7.8783-1.885-4.3512 0-7.8786.844-7.8786 1.885 0 1.042 3.5274 1.886 7.8786 1.886Z" opacity=".3"/>
  <path fill="#BEB8AF" d="M140.296 130.574c.089-1.336-3.358-2.651-7.7-2.936-4.341-.285-7.934.567-8.023 1.902-.089 1.336 3.358 2.65 7.7 2.936 4.341.285 7.934-.567 8.023-1.902Z" opacity=".3"/>
  <path fill="#B4AC9F" d="M170.205 136.643c-1.08-.124-2.376-.082-3.964-.537-4.288-.765-7.642-2.508-7.488-3.846.031-.267.031-.267.332-.504 4.195 1.569 8.007 3.085 11.12 4.887Z" opacity=".3"/>
  <path fill="url(#paint3_linear_3831_4629)" d="M153.362 55.9593c.92-5.1258-10.548-11.4361-25.615-14.0944-15.067-2.6584-28.0277-.6581-28.9478 4.4677-.92 5.1258 10.5488 11.4361 25.6158 14.0944 15.067 2.6583 28.027.6581 28.947-4.4677Z"/>
  <path fill="#D9D2C7" d="M55.8013 80.7855s-9.3846 2.3827-6.5408 4.2888c2.8438 1.8109 9.5742 4.956 15.9254 2.8592 6.3511-2.0967 0-5.0512.0948-5.0512s-9.4794-2.0968-9.4794-2.0968Z"/>
  <path fill="#EDE5DA" d="M44.3318 80.0196c3.4126 1.0484 13.9346-.6671 20.665-5.0512 5.3084 6.5762 7.2991 8.2917 9.195 8.4823-2.9386 2.9545-12.7024 7.7199-18.2004 1.5249-6.446 4.0982-11.6596-4.956-11.6596-4.956ZM157.05 88.6016c3.602.1906 13.365-4.1935 18.674-10.1026 6.825 5.0513 9.1 6.195 11.091 5.909-2.18 3.6217-8.816 11.5322-18.201 12.104-6.825-4.0029-11.564-7.9104-11.564-7.9104Z"/>
  <path fill="#fff" d="M125.837 88.712c-.713-3.536-7.391-11.8998-14.436-15.5689 3.192-7.8682 3.733-10.3564 2.96-12.213 4.051 1.2093 13.365 5.6652 16.256 14.6113-2.176 7.607-4.78 13.1706-4.78 13.1706Z"/>
  <path stroke="#DFD8D1" stroke-linecap="round" stroke-linejoin="round" stroke-miterlimit="10" stroke-width="1.7424" d="M210.517 142.211H20.5948"/>
  <path fill="url(#paint4_linear_3831_4629)" d="M94.299 120.571v5.387h-3.2601v5.118h-6.2486v-5.118H71.2064v-6.195l12.4972-17.238h7.3353v18.046h3.2601Zm-9.237-11.043-7.8787 11.043h7.8787v-11.043Z"/>
  <path fill="url(#paint5_linear_3831_4629)" d="M113.858 131.61c-6.52 0-12.226-5.656-12.226-14.814 0-9.158 5.706-14.814 12.226-14.814 6.52 0 12.225 5.656 12.225 14.814.272 8.889-5.433 14.814-12.225 14.814Zm0-5.656c2.988 0 6.248-2.963 6.248-9.427 0-6.195-2.988-9.427-6.248-9.427-2.989 0-6.249 2.962-6.249 9.427.272 6.464 3.26 9.427 6.249 9.427Z"/>
  <path fill="url(#paint6_linear_3831_4629)" d="M157.055 120.571v5.387h-3.261v5.118h-6.248v-5.118h-13.584v-6.195l12.497-17.238h7.064v18.046h3.532Zm-9.509-11.043-7.879 11.043h7.879v-11.043Z"/>
  <path fill="url(#paint7_linear_3831_4629)" d="M91.8492 120.571v5.387h-3.2601v5.118h-6.2486v-5.118H68.7566v-6.195l12.4972-17.238h7.0636v18.046h3.5318Zm-9.2371-11.043-7.8786 11.043h7.8786v-11.043Z"/>
  <path fill="url(#paint8_linear_3831_4629)" d="M111.408 131.61c-6.52 0-12.2254-5.656-12.2254-14.814 0-9.158 5.7054-14.814 12.2254-14.814 6.52 0 12.226 5.656 12.226 14.814.271 8.889-5.434 14.814-12.226 14.814Zm0-5.656c2.989 0 6.249-2.963 6.249-9.427 0-6.195-2.989-9.427-6.249-9.427-2.988 0-6.248 2.962-6.248 9.427.271 6.464 3.26 9.427 6.248 9.427Z"/>
  <path fill="url(#paint9_linear_3831_4629)" d="M154.605 120.571v5.387h-3.26v5.118h-6.249v-5.118h-13.584v-6.195l12.497-17.238h7.064v18.046h3.532Zm-9.509-11.043-7.879 11.043h7.879v-11.043Z"/>
  <defs>
    <linearGradient id="paint0_linear_3831_4629" x1="72.1131" x2="139.634" y1="33.782" y2="45.9018" gradientUnits="userSpaceOnUse">
      <stop stop-color="#F7F2EB"/>
      <stop offset="1" stop-color="#EAE1D5"/>
    </linearGradient>
    <linearGradient id="paint1_linear_3831_4629" x1="113.861" x2="113.861" y1="48.5524" y2="92.5465" gradientUnits="userSpaceOnUse">
      <stop stop-color="#E7DAC9"/>
      <stop offset="1" stop-color="#E9DFD0" stop-opacity=".1"/>
    </linearGradient>
    <linearGradient id="paint2_linear_3831_4629" x1="112.903" x2="112.903" y1="124.802" y2="142.211" gradientUnits="userSpaceOnUse">
      <stop stop-color="#CBBFAB"/>
      <stop offset="1" stop-color="#EFE7DC" stop-opacity="0"/>
    </linearGradient>
    <linearGradient id="paint3_linear_3831_4629" x1="126.081" x2="130.102" y1="58.3089" y2="44.4295" gradientUnits="userSpaceOnUse">
      <stop stop-color="#E9E0D4"/>
      <stop offset="1" stop-color="#C1B6A7"/>
    </linearGradient>
    <linearGradient id="paint4_linear_3831_4629" x1="82.7545" x2="82.7545" y1="103.516" y2="119.542" gradientUnits="userSpaceOnUse">
      <stop stop-color="#EDE5DA"/>
      <stop offset="1" stop-color="#C7BDB4"/>
    </linearGradient>
    <linearGradient id="paint5_linear_3831_4629" x1="113.864" x2="113.864" y1="103.011" y2="119.641" gradientUnits="userSpaceOnUse">
      <stop stop-color="#EDE5DA"/>
      <stop offset="1" stop-color="#C7BDB4"/>
    </linearGradient>
    <linearGradient id="paint6_linear_3831_4629" x1="145.51" x2="145.51" y1="103.516" y2="119.542" gradientUnits="userSpaceOnUse">
      <stop stop-color="#EDE5DA"/>
      <stop offset="1" stop-color="#C7BDB4"/>
    </linearGradient>
    <linearGradient id="paint7_linear_3831_4629" x1="80.3047" x2="80.3047" y1="103.516" y2="119.542" gradientUnits="userSpaceOnUse">
      <stop stop-color="#F7F3EE"/>
      <stop offset="1" stop-color="#E6E0D8"/>
    </linearGradient>
    <linearGradient id="paint8_linear_3831_4629" x1="111.415" x2="111.415" y1="103.011" y2="119.641" gradientUnits="userSpaceOnUse">
      <stop stop-color="#F7F3EE"/>
      <stop offset="1" stop-color="#E6E0D8"/>
    </linearGradient>
    <linearGradient id="paint9_linear_3831_4629" x1="143.06" x2="143.06" y1="103.516" y2="119.542" gradientUnits="userSpaceOnUse">
      <stop stop-color="#F7F3EE"/>
      <stop offset="1" stop-color="#E6E0D8"/>
    </linearGradient>
  </defs>
</svg>

<svg width="231" height="160" viewBox="0 0 231 160" fill="none" xmlns="http://www.w3.org/2000/svg">
<g filter="url(#filter0_d_3831_4629)">
<path d="M156.04 36.4543C156.04 50.4604 144.901 62.0423 131.045 62.8504C130.502 62.8504 129.959 62.8504 129.415 62.8504C124.797 62.8504 120.178 61.5036 116.375 59.3489C108.225 54.7699 102.791 46.1508 102.791 36.1849C102.791 29.4512 105.236 23.2562 109.583 18.6773C114.473 13.2903 121.537 9.78882 129.415 9.78882C139.739 9.78882 148.705 15.7145 153.051 24.3336C154.953 28.1045 156.04 32.1447 156.04 36.4543Z" fill="#FEFEFE"/>
</g>
<path d="M156.249 36.5581C156.249 50.5642 145.11 62.1462 131.254 62.9542C126.093 62.1462 121.202 60.7994 116.584 59.722C108.434 55.1431 103 46.524 103 36.5581C103 29.8244 105.445 23.6294 109.792 19.0505C118.757 18.7812 129.081 19.5892 139.676 21.4746C144.567 22.2827 149.185 23.3601 153.532 24.4375C155.162 28.2083 156.249 32.2486 156.249 36.5581Z" fill="#F2F2F2"/>
<g filter="url(#filter1_d_3831_4629)">
<path d="M188.291 54.283C190.342 42.8598 165.06 28.8458 131.824 22.9818C98.5875 17.1178 69.9818 21.6244 67.9314 33.0476C65.881 44.4708 91.1622 58.4848 124.399 64.3488C157.635 70.2128 186.241 65.7062 188.291 54.283Z" fill="url(#paint0_linear_3831_4629)"/>
</g>
<path d="M123.35 29.5036C123.501 27.5756 120.47 25.7696 116.581 25.4698C112.692 25.1699 109.416 26.4899 109.265 28.4179C109.114 30.346 112.144 32.152 116.034 32.4518C119.923 32.7516 123.199 31.4317 123.35 29.5036Z" fill="#B7B4AF"/>
<path d="M89.165 34.4597C92.9047 33.3589 95.4862 30.9638 94.9311 29.11C94.3759 27.2563 90.8944 26.6458 87.1547 27.7466C83.4151 28.8473 80.8336 31.2424 81.3887 33.0962C81.9438 34.95 85.4254 35.5604 89.165 34.4597Z" fill="#B7B4AF"/>
<path d="M150.828 36.5945C151.17 34.6906 148.333 32.5979 144.493 31.9203C140.652 31.2427 137.262 32.2368 136.92 34.1406C136.578 36.0445 139.415 38.1372 143.255 38.8148C147.096 39.4924 150.486 38.4984 150.828 36.5945Z" fill="#B7B4AF"/>
<path d="M171.458 50.6785C172.352 48.9597 170.266 46.1295 166.799 44.3569C163.332 42.5843 159.796 42.5408 158.902 44.2596C158.008 45.9783 160.094 48.8086 163.562 50.5812C167.029 52.3538 170.565 52.3973 171.458 50.6785Z" fill="#B7B4AF"/>
<path d="M124.722 46.0989L99.1839 45.8296L62.8149 113.475L164.894 124.21L153.519 55.2568L124.722 46.0989Z" fill="url(#paint1_linear_3831_4629)"/>
<path opacity="0.5" d="M178.242 142.211H47.5646C51.0964 139.046 56.2583 135.881 62.2352 133.507C65.4953 132.32 69.2988 130.737 73.1023 129.946C84.5127 126.781 98.3683 124.802 113.039 124.802C130.698 124.802 146.999 127.572 159.496 131.924C163.843 133.507 167.646 135.089 170.906 137.068C173.895 138.65 176.34 140.233 178.242 142.211Z" fill="url(#paint2_linear_3831_4629)"/>
<path opacity="0.3" d="M74.9171 131.864C75.0882 133.471 72.2878 135.394 69.046 135.739C65.8042 136.085 62.96 135.033 62.5187 133.455C65.6749 132.306 69.3429 130.832 73.0679 129.894C74.2056 130.314 74.8315 131.06 74.9171 131.864Z" fill="#B9B2A7"/>
<path opacity="0.3" d="M97.8227 130.732C102.174 130.732 105.701 129.888 105.701 128.846C105.701 127.805 102.174 126.961 97.8227 126.961C93.4715 126.961 89.9441 127.805 89.9441 128.846C89.9441 129.888 93.4715 130.732 97.8227 130.732Z" fill="#B9B2A7"/>
<path opacity="0.3" d="M140.296 130.574C140.385 129.238 136.938 127.923 132.596 127.638C128.255 127.353 124.662 128.205 124.573 129.54C124.484 130.876 127.931 132.19 132.273 132.476C136.614 132.761 140.207 131.909 140.296 130.574Z" fill="#BEB8AF"/>
<path opacity="0.3" d="M170.205 136.643C169.125 136.519 167.829 136.561 166.241 136.106C161.953 135.341 158.599 133.598 158.753 132.26C158.784 131.993 158.784 131.993 159.085 131.756C163.28 133.325 167.092 134.841 170.205 136.643Z" fill="#B4AC9F"/>
<path d="M153.362 55.9593C154.282 50.8335 142.814 44.5232 127.747 41.8649C112.68 39.2065 99.7193 41.2068 98.7992 46.3326C97.8792 51.4584 109.348 57.7687 124.415 60.427C139.482 63.0853 152.442 61.0851 153.362 55.9593Z" fill="url(#paint3_linear_3831_4629)"/>
<path d="M55.8013 80.7855C55.8013 80.7855 46.4167 83.1682 49.2605 85.0743C52.1043 86.8852 58.8347 90.0303 65.1859 87.9335C71.537 85.8368 65.1859 82.8823 65.2807 82.8823C65.3755 82.8823 55.8013 80.7855 55.8013 80.7855Z" fill="#CDC5B9"/>
<path d="M44.3318 80.0196C47.7444 81.068 58.2664 79.3525 64.9968 74.9684C70.3052 81.5446 72.2959 83.2601 74.1918 83.4507C71.2532 86.4052 61.4894 91.1706 55.9914 84.9756C49.5454 89.0738 44.3318 80.0196 44.3318 80.0196Z" fill="#ECE4DA"/>
<path d="M157.05 88.6016C160.652 88.7922 170.415 84.4081 175.724 78.499C182.549 83.5503 184.824 84.694 186.815 84.408C184.635 88.0297 177.999 95.9402 168.614 96.512C161.789 92.5091 157.05 88.6016 157.05 88.6016Z" fill="#E5DBCE"/>
<path d="M125.837 88.712C125.124 85.176 118.446 76.8122 111.401 73.1431C114.593 65.2749 115.134 62.7867 114.361 60.9301C118.412 62.1394 127.726 66.5953 130.617 75.5414C128.441 83.1484 125.837 88.712 125.837 88.712Z" fill="white"/>
<path d="M210.517 142.211H202.268H31.2522H20.5948" stroke="#DFD8D1" stroke-width="1.74239" stroke-miterlimit="10" stroke-linecap="round" stroke-linejoin="round"/>
<path d="M94.299 120.571V125.958H91.0389V131.076H84.7903V125.958H71.2064V119.763L83.7036 102.525H91.0389V120.571H94.299ZM85.062 109.528L77.1833 120.571H85.062V109.528Z" fill="url(#paint4_linear_3831_4629)"/>
<path d="M113.858 131.61C107.338 131.61 101.632 125.954 101.632 116.796C101.632 107.638 107.338 101.982 113.858 101.982C120.378 101.982 126.083 107.638 126.083 116.796C126.355 125.685 120.65 131.61 113.858 131.61ZM113.858 125.954C116.846 125.954 120.106 122.991 120.106 116.527C120.106 110.332 117.118 107.1 113.858 107.1C110.869 107.1 107.609 110.062 107.609 116.527C107.881 122.991 110.869 125.954 113.858 125.954Z" fill="url(#paint5_linear_3831_4629)"/>
<path d="M157.055 120.571V125.958H153.794V131.076H147.546V125.958H133.962V119.763L146.459 102.525H153.523V120.571H157.055ZM147.546 109.528L139.667 120.571H147.546V109.528Z" fill="url(#paint6_linear_3831_4629)"/>
<path d="M91.8492 120.571V125.958H88.5891V131.076H82.3405V125.958H68.7566V119.763L81.2538 102.525H88.3174V120.571H91.8492ZM82.6122 109.528L74.7335 120.571H82.6122V109.528Z" fill="#FCFBFB"/>
<path d="M111.408 131.61C104.888 131.61 99.1826 125.954 99.1826 116.796C99.1826 107.638 104.888 101.982 111.408 101.982C117.928 101.982 123.634 107.638 123.634 116.796C123.905 125.685 118.2 131.61 111.408 131.61ZM111.408 125.954C114.397 125.954 117.657 122.991 117.657 116.527C117.657 110.332 114.668 107.1 111.408 107.1C108.42 107.1 105.16 110.062 105.16 116.527C105.431 122.991 108.42 125.954 111.408 125.954Z" fill="#FCFBFB"/>
<path d="M154.605 120.571V125.958H151.345V131.076H145.096V125.958H131.512V119.763L144.009 102.525H151.073V120.571H154.605ZM145.096 109.528L137.217 120.571H145.096V109.528Z" fill="#FCFBFB"/>
<defs>
<filter id="filter0_d_3831_4629" x="86.791" y="0.788818" width="85.2488" height="85.0615" filterUnits="userSpaceOnUse" color-interpolation-filters="sRGB">
<feFlood flood-opacity="0" result="BackgroundImageFix"/>
<feColorMatrix in="SourceAlpha" type="matrix" values="0 0 0 0 0 0 0 0 0 0 0 0 0 0 0 0 0 0 127 0" result="hardAlpha"/>
<feOffset dy="7"/>
<feGaussianBlur stdDeviation="8"/>
<feColorMatrix type="matrix" values="0 0 0 0 0.482733 0 0 0 0 0.482733 0 0 0 0 0.482733 0 0 0 0.27 0"/>
<feBlend mode="normal" in2="BackgroundImageFix" result="effect1_dropShadow_3831_4629"/>
<feBlend mode="normal" in="SourceGraphic" in2="effect1_dropShadow_3831_4629" result="shape"/>
</filter>
<filter id="filter1_d_3831_4629" x="57.8149" y="16.4108" width="140.593" height="66.509" filterUnits="userSpaceOnUse" color-interpolation-filters="sRGB">
<feFlood flood-opacity="0" result="BackgroundImageFix"/>
<feColorMatrix in="SourceAlpha" type="matrix" values="0 0 0 0 0 0 0 0 0 0 0 0 0 0 0 0 0 0 127 0" result="hardAlpha"/>
<feOffset dy="6"/>
<feGaussianBlur stdDeviation="5"/>
<feColorMatrix type="matrix" values="0 0 0 0 0.576471 0 0 0 0 0.501961 0 0 0 0 0.396078 0 0 0 0.17 0"/>
<feBlend mode="normal" in2="BackgroundImageFix" result="effect1_dropShadow_3831_4629"/>
<feBlend mode="normal" in="SourceGraphic" in2="effect1_dropShadow_3831_4629" result="shape"/>
</filter>
<linearGradient id="paint0_linear_3831_4629" x1="65.1449" y1="32.5699" x2="189.52" y2="54.8949" gradientUnits="userSpaceOnUse">
<stop stop-color="#FDFEFF"/>
<stop offset="0.9964" stop-color="#F5F2EC"/>
</linearGradient>
<linearGradient id="paint1_linear_3831_4629" x1="113.861" y1="48.5524" x2="113.861" y2="92.5465" gradientUnits="userSpaceOnUse">
<stop stop-color="#DBD5CE"/>
<stop offset="1" stop-color="#E9DFD0" stop-opacity="0.1"/>
</linearGradient>
<linearGradient id="paint2_linear_3831_4629" x1="112.903" y1="124.802" x2="112.903" y2="142.211" gradientUnits="userSpaceOnUse">
<stop stop-color="#CBBFAB"/>
<stop offset="1" stop-color="#EFE7DC" stop-opacity="0"/>
</linearGradient>
<linearGradient id="paint3_linear_3831_4629" x1="126.081" y1="58.3089" x2="130.102" y2="44.4295" gradientUnits="userSpaceOnUse">
<stop stop-color="#E9E0D4"/>
<stop offset="1" stop-color="#C1B6A7"/>
</linearGradient>
<linearGradient id="paint4_linear_3831_4629" x1="82.7545" y1="103.516" x2="82.7545" y2="119.542" gradientUnits="userSpaceOnUse">
<stop stop-color="#EDE5DA"/>
<stop offset="1" stop-color="#C7BDB4"/>
</linearGradient>
<linearGradient id="paint5_linear_3831_4629" x1="113.864" y1="103.011" x2="113.864" y2="119.641" gradientUnits="userSpaceOnUse">
<stop stop-color="#EDE5DA"/>
<stop offset="1" stop-color="#C7BDB4"/>
</linearGradient>
<linearGradient id="paint6_linear_3831_4629" x1="145.51" y1="103.516" x2="145.51" y2="119.542" gradientUnits="userSpaceOnUse">
<stop stop-color="#EDE5DA"/>
<stop offset="1" stop-color="#C7BDB4"/>
</linearGradient>
</defs>
</svg>
